<?xml version="1.0" encoding="UTF-8"?>
<map version="1.10" tiledversion="1.11.2" orientation="orthogonal" renderorder="right-down" width="120" height="68" tilewidth="16" tileheight="16" infinite="0" nextlayerid="27" nextobjectid="118">
 <tileset firstgid="1" source="maintileset.tsx"/>
 <tileset firstgid="1025" source="SpikesNew.tsx"/>
 <tileset firstgid="1026" source="Foliage.tsx"/>
 <group id="5" name="bg" offsetx="4" offsety="193.333">
  <imagelayer id="9" name="bg" offsetx="0" offsety="-192" repeatx="1" repeaty="1">
   <image source="../graphics/bgart/sky.png" width="1920" height="1080"/>
  </imagelayer>
  <imagelayer id="12" name="clouds" offsetx="-3.63636" offsety="-297.939" parallaxx="1.2" repeatx="1">
   <image source="../graphics/bgart/clouds.png" width="1920" height="1080"/>
  </imagelayer>
  <imagelayer id="16" name="city" offsetx="-4.18182" offsety="-312" parallaxx="1.4" repeatx="1">
   <image source="../graphics/bgart/city.png" width="1920" height="1080"/>
  </imagelayer>
  <imagelayer id="10" name="grass" offsetx="0" offsety="-304" parallaxx="1.6" repeatx="1">
   <image source="../graphics/bgart/grass.png" width="1920" height="1080"/>
  </imagelayer>
  <imagelayer id="13" name="dirt" offsetx="-4.0048" offsety="14.6664" repeatx="1">
   <image source="../graphics/bgart/dirt.png" width="1920" height="1080"/>
  </imagelayer>
 </group>
 <layer id="1" name="Tile Layer 1" width="120" height="68">
  <data encoding="csv">
67,1,1,1,1,0,0,0,0,0,0,0,0,0,0,0,0,0,0,0,0,0,0,0,0,0,0,0,0,0,0,0,0,0,0,0,0,0,0,0,0,0,0,0,0,0,0,0,0,0,0,0,0,0,0,0,0,0,0,0,0,0,0,0,0,0,0,0,0,0,0,0,0,0,0,0,0,0,0,0,0,0,0,0,0,0,0,0,0,0,0,0,0,0,0,0,0,0,0,0,0,0,0,0,0,0,0,0,0,1,1,1,1,1,1,1,1,1,1,67,
67,1,1,1,1,0,0,0,0,0,0,0,0,0,0,0,0,0,0,0,0,0,0,0,0,0,0,0,0,0,0,0,0,0,0,0,0,0,0,0,0,0,0,0,0,0,0,0,0,0,0,0,0,0,0,0,0,0,0,0,0,0,0,0,0,0,0,0,0,0,0,0,0,0,0,0,0,0,0,0,0,0,0,0,0,0,0,0,0,0,0,0,0,0,0,0,0,0,0,0,0,0,0,0,0,0,0,0,0,1,1,1,1,1,1,1,1,1,1,67,
67,1,1,1,1,0,0,0,0,0,0,0,0,0,0,0,0,0,0,0,0,0,0,0,0,0,0,0,0,0,0,0,0,0,0,0,0,0,0,0,0,0,0,0,0,0,0,0,0,0,0,0,0,0,0,0,0,0,0,0,0,0,0,0,0,0,0,0,0,0,0,0,0,0,0,0,0,0,0,0,0,0,0,0,0,0,0,0,0,0,0,0,0,0,0,0,0,0,0,0,0,0,0,0,0,0,0,0,0,1,1,1,1,1,1,1,1,1,1,67,
67,1,1,1,1,0,0,0,0,0,0,0,0,0,0,0,0,0,0,0,0,0,0,0,0,0,0,0,0,0,0,0,0,0,0,0,0,0,0,0,0,0,0,0,0,0,0,0,0,0,0,0,0,0,0,0,0,0,0,0,0,0,0,0,0,0,0,0,0,0,0,0,0,0,0,0,0,0,0,0,0,0,0,0,0,0,0,0,0,0,0,0,0,0,0,0,0,0,0,0,0,0,0,0,0,0,0,0,0,1,1,1,1,1,1,1,1,1,1,67,
67,1,1,1,1,0,0,0,0,0,0,0,0,0,0,0,0,0,0,0,0,0,0,0,0,0,0,0,0,0,0,0,33,33,33,33,33,33,33,33,33,33,33,33,33,33,33,33,33,33,33,33,33,33,33,33,33,33,33,33,33,33,33,33,33,33,33,33,33,33,33,33,33,33,33,33,33,33,33,33,0,0,0,0,0,0,0,0,0,0,0,0,0,0,0,0,0,0,0,0,0,0,0,0,0,0,0,0,0,1,1,1,1,1,1,1,1,1,1,67,
67,1,1,1,1,0,0,0,0,0,0,0,0,0,0,0,0,0,0,0,0,0,0,0,0,0,0,0,0,0,0,0,33,33,33,33,33,33,33,33,33,33,33,33,33,33,33,33,33,33,33,33,33,33,33,33,33,33,33,33,33,33,33,33,33,33,33,33,33,33,33,33,33,33,33,33,33,33,33,33,0,0,0,0,0,0,0,0,0,0,0,0,0,0,0,0,0,0,0,0,0,0,0,0,0,0,0,0,0,1,1,1,1,1,1,1,1,1,1,67,
67,1,1,1,1,0,0,0,0,0,0,0,0,0,0,0,0,0,0,0,0,0,0,0,0,0,0,0,0,0,0,0,33,33,33,33,33,33,33,33,33,33,33,33,33,33,33,33,33,33,33,33,33,33,33,33,33,33,33,33,33,33,33,33,33,33,33,33,33,33,33,33,33,33,33,33,33,33,33,33,0,0,0,0,0,0,0,0,0,0,0,0,0,0,0,0,0,0,0,0,0,0,0,0,0,0,0,0,0,1,1,1,1,1,1,1,1,1,1,67,
67,1,1,1,1,0,0,0,0,0,0,0,0,0,0,0,0,0,0,0,0,0,0,0,0,0,0,0,0,0,0,0,33,33,33,33,33,33,33,33,33,33,33,33,33,33,33,33,33,33,33,33,33,33,33,33,33,33,33,33,33,33,33,33,33,33,33,33,33,33,33,33,33,33,33,33,33,33,33,33,0,0,0,0,0,0,0,0,0,0,0,0,0,0,0,0,0,0,0,0,0,0,0,0,0,0,0,0,0,1,1,1,1,1,1,1,1,1,1,67,
67,1,1,1,1,0,0,0,0,0,0,0,0,0,0,0,0,0,0,0,0,0,0,0,0,0,0,0,0,0,0,0,33,33,33,33,33,33,33,33,33,33,33,33,33,33,33,33,33,33,33,33,33,33,33,33,33,33,33,33,33,33,33,33,33,33,33,33,33,33,33,33,33,33,33,33,33,33,33,33,0,0,0,0,0,0,0,0,0,0,0,0,0,0,0,0,0,0,0,0,0,0,0,0,0,0,0,0,0,1,1,1,1,1,1,1,1,1,1,67,
67,1,1,1,1,0,0,0,0,0,0,0,0,0,0,0,0,0,0,0,0,0,0,0,0,0,0,0,0,0,0,0,33,33,33,33,33,33,33,33,33,33,33,33,33,33,33,33,33,33,33,33,33,33,33,33,33,33,33,33,33,33,33,33,33,33,33,33,33,33,33,33,33,33,33,33,33,33,33,33,0,0,0,0,0,0,0,0,0,0,0,0,0,0,0,0,0,0,0,0,0,0,0,0,0,0,0,0,0,1,1,1,1,1,1,1,1,1,1,67,
67,1,1,1,1,0,0,0,0,0,0,0,0,0,0,0,0,0,0,0,0,0,0,0,0,0,0,0,0,0,0,0,33,33,33,33,33,33,33,33,33,33,33,33,33,33,33,33,33,33,33,33,33,33,33,33,33,33,33,33,33,33,33,33,33,33,33,33,33,33,33,33,33,33,33,33,33,33,33,33,0,0,0,0,0,0,0,0,0,0,0,0,0,0,0,0,0,0,0,0,0,0,0,0,0,0,0,0,0,1,1,1,1,1,1,1,1,1,1,67,
67,1,1,1,1,0,0,0,0,0,0,0,0,0,0,0,0,0,0,0,0,0,0,0,0,0,0,0,0,0,0,0,33,33,33,33,33,33,33,33,33,33,33,33,33,33,33,33,33,33,33,33,33,33,33,33,33,33,33,33,33,33,33,33,33,33,33,33,33,33,33,33,33,33,33,33,33,33,33,33,0,0,0,0,0,0,0,0,0,0,0,0,0,0,0,0,0,0,0,0,0,0,0,0,0,0,0,0,0,1,1,1,1,1,1,1,1,1,1,67,
67,1,1,1,1,0,0,0,0,0,0,0,0,0,0,0,0,0,0,0,0,0,0,0,0,0,0,0,0,0,0,0,33,33,33,33,33,33,33,33,33,33,33,33,33,33,33,33,33,33,33,33,33,33,33,33,33,33,33,33,33,33,33,33,33,33,33,33,33,33,33,33,33,33,33,33,33,33,33,33,0,0,0,0,0,0,0,0,0,0,0,0,0,0,0,0,0,0,0,0,0,0,0,0,0,0,0,0,0,1,1,1,1,1,1,1,1,1,1,67,
67,1,1,1,1,0,0,0,0,0,0,0,0,0,0,0,0,0,0,0,0,0,0,0,0,0,0,0,0,0,0,0,33,33,33,33,33,33,33,33,33,33,33,33,33,33,33,33,33,33,33,33,33,33,33,33,33,33,33,33,33,33,33,33,33,33,33,33,33,33,33,33,33,33,33,33,33,33,33,33,0,0,0,0,0,0,0,0,0,0,0,0,0,0,0,0,0,0,0,0,0,0,0,0,0,0,0,0,0,1,1,1,1,1,1,1,1,1,1,67,
67,1,1,1,1,0,0,0,0,0,0,0,0,0,0,0,0,0,0,0,0,0,0,0,0,0,0,0,0,0,0,0,33,33,33,33,33,33,33,33,33,33,33,33,33,33,33,33,33,33,33,33,33,33,33,33,33,33,33,33,33,33,33,33,33,33,33,33,33,33,33,33,33,33,33,33,33,33,33,33,0,0,0,0,0,0,0,0,0,0,0,0,0,0,0,0,0,0,0,0,0,0,0,0,0,0,0,0,0,1,1,1,1,1,1,1,1,1,1,67,
67,1,1,1,1,0,0,0,0,0,0,0,0,0,0,0,0,0,0,0,0,0,0,0,0,0,0,0,0,0,0,0,33,33,33,33,33,33,33,33,33,33,33,33,33,33,33,33,33,33,33,33,33,33,33,33,33,33,33,33,33,33,33,33,33,33,33,33,33,33,33,33,33,33,33,33,33,33,33,33,0,0,0,0,0,0,0,0,0,0,0,0,0,0,0,0,0,0,0,0,0,0,0,0,0,0,0,0,0,1,1,1,1,1,1,1,1,1,1,67,
67,1,1,1,1,0,0,0,0,0,0,0,0,0,0,0,0,0,0,0,0,0,0,0,0,0,0,0,0,0,0,0,33,33,33,33,33,33,33,33,33,33,33,33,33,33,33,33,33,33,33,33,33,33,33,33,33,33,33,33,33,33,33,33,33,33,33,33,33,33,33,33,33,33,33,33,33,33,33,33,0,0,0,0,0,0,0,0,0,0,0,0,0,0,0,0,0,0,0,0,0,0,0,0,0,0,0,0,0,1,1,1,1,1,1,1,1,1,1,67,
67,1,1,1,1,0,0,0,0,0,0,0,0,0,0,0,0,0,0,0,0,0,0,0,0,0,0,0,0,0,0,0,33,33,33,33,33,33,33,33,33,33,33,33,33,33,33,33,33,33,33,33,33,33,33,33,33,33,33,33,33,33,33,33,33,33,33,33,33,33,33,33,33,33,33,33,33,33,33,33,0,0,0,0,0,0,0,0,0,0,0,0,0,0,0,0,0,0,0,0,0,0,0,0,0,0,0,0,0,1,1,1,1,1,1,1,1,1,1,67,
67,1,1,1,1,0,0,0,0,0,0,0,0,0,0,0,0,0,0,0,0,0,0,0,0,0,0,0,0,0,0,0,33,33,33,33,33,33,33,33,33,33,33,33,33,33,33,33,33,33,33,33,33,33,33,33,33,33,33,33,33,33,33,33,33,33,33,33,33,33,33,33,33,33,33,33,33,33,33,33,0,0,0,0,0,0,0,0,0,0,0,0,0,0,0,0,0,0,0,0,0,0,0,0,0,0,0,0,0,1,1,1,1,1,1,1,1,1,1,67,
67,1,1,1,1,0,0,0,0,0,0,0,0,0,0,0,0,0,0,0,0,0,0,0,0,0,0,0,0,0,0,0,33,33,33,33,33,33,33,33,33,33,33,33,33,33,33,33,33,33,33,33,33,33,33,33,33,33,33,33,33,33,33,33,33,33,33,33,33,33,33,33,33,33,33,33,33,33,33,33,0,0,0,0,0,0,0,0,0,0,0,0,0,0,0,0,0,0,0,0,0,0,0,0,0,0,0,0,0,1,1,1,1,1,1,1,1,1,1,67,
67,1,1,1,1,0,0,0,0,0,0,0,0,0,0,0,0,0,0,0,0,0,0,0,0,0,0,0,0,0,0,0,33,33,33,33,33,33,33,33,33,33,33,33,33,33,33,33,33,33,33,33,33,33,33,33,33,33,33,33,33,33,33,33,33,33,33,33,33,33,33,33,33,33,33,33,33,33,33,33,0,0,0,0,0,0,0,0,0,0,0,0,0,0,0,0,0,0,0,0,0,0,0,0,0,0,0,0,0,1,1,1,1,1,1,1,1,1,1,67,
67,1,1,1,1,0,0,0,0,0,0,0,0,0,0,0,0,0,0,0,0,0,0,0,0,0,0,0,0,0,0,0,33,33,33,33,33,33,33,33,33,33,33,33,33,33,33,33,33,33,33,33,33,33,33,33,33,33,33,33,33,33,33,33,33,33,33,33,33,33,33,33,33,33,33,33,33,33,33,33,0,0,0,0,0,0,0,0,0,0,0,0,0,0,0,0,0,0,0,0,0,0,0,0,0,0,0,0,0,1,1,1,1,1,1,1,1,1,1,67,
67,1,1,1,1,0,0,0,0,0,0,0,0,0,0,0,0,0,0,0,0,0,0,0,0,0,0,0,0,0,0,0,0,0,0,0,0,0,33,33,33,33,33,33,33,33,33,33,33,33,33,33,33,33,33,33,33,33,33,33,33,33,33,33,33,33,33,33,33,33,33,33,0,0,0,0,0,0,0,0,0,0,0,0,0,0,0,0,0,0,0,0,0,0,0,0,0,0,0,0,0,0,0,0,0,0,0,0,0,1,1,1,1,1,1,1,1,1,1,67,
67,1,1,1,1,0,0,0,0,0,0,0,0,0,0,0,0,0,0,0,0,0,0,0,0,0,0,0,0,0,0,0,0,0,0,0,0,0,33,33,33,33,33,33,33,33,33,33,33,33,33,33,33,33,33,33,33,33,33,33,33,33,33,33,33,33,33,33,33,33,33,33,0,0,0,0,0,0,0,0,0,0,0,0,0,0,0,0,0,0,0,0,0,0,0,0,0,0,0,0,0,0,0,0,0,0,0,0,0,1,1,1,1,1,1,1,1,1,1,67,
67,1,1,1,1,0,0,0,0,0,0,0,0,0,0,0,0,0,0,0,0,0,0,0,0,0,0,0,0,0,0,0,0,0,0,0,0,0,33,33,33,33,33,33,33,33,33,33,33,33,33,33,33,33,33,33,33,33,33,33,33,33,33,33,33,33,33,33,33,33,33,33,0,0,0,0,0,0,0,0,0,0,0,0,0,0,0,0,0,0,0,0,0,0,0,0,0,0,0,0,0,0,0,0,0,0,0,0,0,1,1,1,1,1,1,1,1,1,1,67,
67,1,1,1,1,0,0,0,0,0,0,0,0,0,0,0,0,0,0,0,0,0,0,0,0,0,0,0,0,0,0,0,0,0,0,0,0,0,33,33,33,33,33,33,33,33,33,33,33,33,33,33,33,33,33,33,1033,33,1034,33,33,1030,33,1031,33,33,33,33,33,33,33,33,0,0,0,0,0,0,0,0,0,0,0,0,0,0,0,0,0,0,0,0,0,0,0,0,0,0,0,0,0,0,0,0,0,0,0,0,0,1,1,1,1,1,1,1,1,1,1,67,
67,1,1,1,1,0,0,0,0,0,0,0,0,0,0,0,0,0,0,0,0,0,0,0,0,0,0,0,0,0,0,0,0,0,0,0,0,0,33,33,33,33,33,33,33,33,33,33,33,33,33,33,33,33,33,33,33,33,33,33,33,33,33,33,33,33,33,33,33,33,33,33,0,0,0,0,0,0,0,0,0,0,0,0,0,0,0,0,0,0,0,0,0,0,0,0,0,0,0,0,0,0,0,0,0,0,0,0,0,1,1,1,1,1,1,1,1,1,1,67,
67,1,1,1,1,0,0,0,0,0,0,0,0,0,0,0,0,0,0,0,0,0,0,0,0,0,0,0,0,0,0,0,0,0,0,0,0,0,0,0,0,0,0,0,0,0,0,0,0,0,0,0,0,0,0,0,1042,0,1043,0,0,1039,0,1040,0,0,0,0,0,0,0,0,0,0,0,0,0,0,0,0,0,0,0,0,0,0,0,0,0,0,0,0,0,0,0,0,0,0,0,0,0,0,0,0,0,0,0,0,0,1,1,1,1,1,1,1,1,1,1,67,
67,1,1,1,1,0,0,0,0,0,0,0,0,0,0,0,0,0,0,0,0,0,0,0,0,0,0,0,0,0,0,0,0,0,0,0,0,0,0,0,0,0,0,0,0,0,0,0,0,0,0,0,0,0,0,0,0,0,0,0,0,0,0,0,0,0,0,0,0,0,0,0,0,0,0,0,0,0,0,0,0,0,0,0,0,0,0,0,0,0,0,0,0,0,0,0,0,0,0,0,0,0,0,0,0,0,0,0,0,1,1,1,1,1,1,1,1,1,1,67,
67,1,1,1,1,0,0,0,0,0,0,0,0,0,0,0,0,0,0,0,0,0,0,0,0,0,0,0,0,0,0,0,0,0,0,0,0,0,0,0,0,0,0,0,1064,0,0,0,0,1063,0,0,1065,0,0,0,1051,0,1052,0,0,1048,0,1049,0,0,1062,0,0,0,0,0,0,0,0,0,0,0,0,0,0,0,0,0,0,0,0,0,0,0,0,0,0,0,0,0,0,0,0,0,0,0,0,0,0,0,0,0,0,1,1,1,1,1,1,1,1,1,1,67,
67,1,1,1,1,0,0,0,0,0,0,0,0,0,0,0,0,0,0,0,0,0,0,0,0,0,0,0,0,0,0,0,0,0,0,0,0,0,0,0,11,37,38,38,38,38,38,38,38,38,38,38,38,38,38,38,38,38,38,38,38,38,38,38,38,38,38,38,38,39,0,0,0,0,0,0,0,0,0,0,0,0,0,0,0,0,0,0,0,0,0,0,0,0,0,0,0,0,0,0,0,1033,0,1034,0,0,0,0,0,1,1,1,1,1,1,1,1062,1,1,67,
67,1,1,1,1,1033,0,1034,0,0,0,0,0,0,0,0,0,0,0,0,0,0,0,0,0,0,0,0,0,0,0,0,0,0,0,0,0,0,0,0,11,69,70,70,70,70,70,70,70,70,70,70,70,70,70,70,70,70,70,70,70,70,70,70,70,70,70,70,70,71,0,0,0,0,0,0,0,0,0,0,0,0,0,0,0,0,0,0,0,0,0,0,0,0,0,0,0,0,0,0,0,0,0,0,0,0,0,0,37,38,38,38,38,38,38,38,38,39,40,67,
67,1,1,1,1,0,0,0,0,0,0,0,0,0,0,0,0,0,0,0,0,0,0,0,0,0,0,0,0,0,0,0,0,0,0,0,0,0,0,0,11,69,70,70,70,70,70,70,70,70,70,70,70,70,70,70,70,70,70,70,70,70,70,70,70,70,70,70,70,71,0,0,0,0,0,0,0,0,0,0,0,0,0,0,0,0,0,0,0,0,0,0,0,0,0,0,0,0,0,0,0,1042,0,1043,0,0,0,0,69,70,70,70,70,70,70,70,70,71,1,67,
67,1,1,1,1,1042,0,1043,0,0,0,0,0,0,0,0,0,0,0,0,0,0,0,0,0,0,0,0,0,0,0,0,0,0,0,0,0,0,0,0,11,69,70,70,70,70,70,70,70,70,70,70,70,70,70,70,70,70,70,70,70,70,70,70,70,70,70,70,70,71,0,0,0,0,0,0,0,0,0,0,0,0,0,0,0,0,0,0,0,0,0,0,0,0,0,0,0,0,0,0,0,0,0,0,0,0,0,0,69,70,70,70,70,70,70,70,70,71,1,67,
67,1,1,1,1,0,0,0,0,0,0,0,0,0,0,0,0,0,0,0,0,0,0,0,0,0,0,0,0,0,0,0,0,37,38,38,38,39,0,0,11,69,70,70,70,70,70,70,70,70,70,70,70,70,70,70,70,70,70,70,70,70,70,70,70,70,70,70,70,71,0,0,0,0,0,0,0,0,0,0,0,0,0,0,0,0,0,0,0,0,0,0,0,0,0,0,0,0,0,0,1062,1051,0,1052,0,0,1065,0,69,70,70,70,70,70,70,70,70,71,1,67,
67,1,1,1,1,1051,0,1052,0,0,1065,0,0,1065,0,0,1062,0,0,0,0,0,0,0,0,0,0,0,0,0,0,0,0,101,102,102,102,103,0,0,11,69,70,70,70,70,70,70,70,70,70,70,70,70,70,70,70,70,70,70,70,70,70,70,70,70,70,70,70,71,0,0,0,0,0,0,0,0,0,0,0,0,0,0,0,0,0,0,0,0,0,0,0,0,0,0,0,37,38,38,38,38,38,38,38,38,38,38,41,70,70,70,70,70,70,70,70,71,1,67,
67,1,1,1,1,37,38,38,38,38,38,38,38,38,38,38,38,38,38,39,0,0,0,0,0,0,0,0,0,0,0,0,0,0,0,0,0,0,0,0,11,69,70,70,70,70,70,70,70,70,70,70,70,70,70,70,70,70,70,70,70,70,70,70,70,70,70,70,70,71,0,0,0,0,0,0,0,0,0,0,0,0,0,0,0,0,0,0,0,0,0,0,0,0,0,0,0,69,70,70,70,70,70,70,70,70,70,70,70,70,70,70,70,70,70,70,70,71,1,67,
67,1,1,1,1,69,70,70,70,70,70,70,70,70,70,70,70,70,70,71,0,0,0,0,0,0,0,0,0,0,0,0,0,0,0,0,0,0,0,0,11,69,70,70,70,70,70,70,70,70,70,70,70,70,70,70,70,70,70,70,70,70,70,70,70,70,70,70,70,71,0,0,0,0,0,0,0,0,0,0,0,0,0,0,0,0,0,0,0,1065,0,0,0,0,0,0,0,69,70,70,70,70,70,70,70,70,70,70,70,70,70,70,70,70,70,70,70,71,1,67,
67,1,1,1,1,101,102,102,102,102,102,102,102,102,102,102,102,102,102,103,0,0,0,0,0,0,0,0,0,0,0,0,0,0,0,0,0,0,0,0,11,69,70,70,70,70,70,70,70,70,70,70,70,70,70,70,70,70,70,70,70,70,70,70,70,70,70,70,70,71,0,0,0,0,0,0,0,0,0,0,0,0,0,0,0,0,0,0,0,37,38,38,38,38,39,0,0,69,70,70,70,70,70,70,70,70,70,70,70,70,70,70,70,70,70,70,70,71,1,67,
67,1,1,1,1,0,0,0,0,0,0,0,0,0,0,0,0,0,0,0,0,0,0,0,0,0,0,0,0,0,0,0,0,0,0,0,0,0,0,0,11,69,70,70,70,70,70,70,70,70,70,70,70,70,70,70,70,70,70,70,70,70,70,70,70,70,70,70,70,71,0,0,0,0,0,0,0,0,0,0,0,0,0,0,0,0,0,0,0,69,70,70,70,70,71,0,0,69,70,70,70,70,70,70,70,70,70,70,70,70,70,70,70,70,70,70,70,71,1,67,
67,1,1,1,1,0,0,0,0,0,0,0,0,0,0,0,0,0,0,0,0,0,0,0,0,0,0,0,37,38,38,38,39,0,0,0,0,0,0,0,11,101,102,102,102,102,102,102,102,102,102,102,102,102,102,102,102,102,102,102,102,70,70,70,70,70,70,70,70,71,0,0,0,0,0,0,0,0,0,0,0,0,0,0,0,0,0,0,0,101,102,102,102,102,103,0,0,69,70,70,70,70,70,70,70,70,70,70,70,70,70,70,70,70,70,70,70,71,1,67,
67,1,1,1,1,0,0,0,0,0,0,0,0,0,0,0,0,0,0,0,0,0,0,0,0,0,0,0,69,70,70,70,71,0,0,0,0,0,0,0,40,76,77,77,77,77,77,77,77,77,77,77,77,77,77,77,77,77,77,77,77,69,70,70,70,70,70,70,70,71,0,0,0,0,0,0,0,0,0,0,0,0,0,0,0,0,0,0,0,0,0,0,0,0,0,0,0,69,70,70,70,70,70,70,70,70,70,70,70,70,70,70,70,70,70,70,70,71,1,67,
67,1,1,1,1,0,0,0,0,0,0,0,0,0,0,0,0,0,0,0,0,0,0,0,0,0,0,0,101,102,102,102,103,0,0,0,0,0,0,0,72,76,77,77,77,77,77,77,77,77,77,77,77,77,77,77,77,77,77,77,77,69,70,70,70,70,70,70,70,71,0,0,0,0,0,0,0,0,0,0,0,0,0,0,0,0,0,0,0,0,0,0,0,0,0,0,0,69,70,70,70,70,70,70,70,70,70,70,70,70,70,70,70,70,70,70,70,71,1,67,
67,1,1,1,1,0,0,0,0,0,0,0,0,0,0,0,0,0,0,0,1063,0,0,0,0,0,0,0,0,0,0,0,0,0,0,0,0,0,0,0,72,76,77,77,77,77,77,77,77,77,77,77,77,77,77,77,77,77,77,77,77,69,70,70,70,70,70,70,70,71,0,0,0,0,0,0,0,0,1062,0,0,0,0,0,0,0,0,0,0,0,0,0,0,0,0,0,0,101,102,102,102,102,102,102,102,102,102,102,102,102,102,102,102,102,102,102,102,103,33,67,
67,1,1,1,1,0,0,0,0,0,0,0,0,0,0,0,0,0,0,0,37,38,38,39,0,0,0,0,0,0,0,0,0,0,0,0,0,0,0,0,72,76,77,77,77,77,77,77,77,77,77,77,77,77,77,77,77,77,77,77,77,69,70,70,70,70,70,70,70,71,0,0,0,0,0,0,37,38,38,38,38,39,0,0,0,0,0,0,0,0,0,0,0,0,0,0,0,44,77,77,77,77,77,77,77,77,77,77,77,77,77,77,77,77,77,77,77,78,33,33,
67,1,1,1,1,0,0,0,0,0,0,0,0,0,0,0,0,0,0,0,101,102,102,103,0,1030,0,1031,0,0,0,0,0,0,0,0,0,0,0,0,72,76,77,77,77,77,77,77,77,77,77,77,77,77,77,77,77,77,77,77,77,69,70,70,70,70,70,70,70,71,0,0,0,0,0,0,69,70,70,70,70,71,0,0,0,0,0,0,0,0,0,0,0,0,0,0,0,76,77,77,77,77,77,77,77,77,77,77,77,77,77,77,77,77,77,77,77,78,33,33,
67,1,1,1,1,0,0,0,0,0,0,0,0,0,0,0,0,0,0,0,0,0,0,0,0,0,0,0,0,0,0,0,0,0,0,0,0,0,0,0,72,76,77,77,77,77,77,77,77,77,77,77,77,77,77,77,77,77,77,77,77,69,70,70,70,70,70,70,70,71,0,0,0,0,0,0,101,102,102,102,102,103,0,0,0,0,0,0,0,0,0,0,0,0,0,0,0,76,77,77,77,77,77,77,77,77,77,77,77,77,77,77,77,77,77,77,77,78,33,33,
67,1,1,1,1,0,0,0,0,0,0,0,0,0,0,0,0,0,0,0,0,0,0,0,0,1039,0,1040,0,0,0,0,0,0,0,0,0,0,0,0,72,76,77,77,77,77,77,77,77,77,77,77,77,77,77,77,77,77,77,77,77,69,70,70,70,70,70,70,70,71,0,0,0,0,0,0,0,0,0,0,0,0,0,0,0,0,0,0,0,0,0,0,0,0,0,0,0,76,77,77,77,77,77,77,77,77,77,77,77,77,77,77,77,77,77,77,77,78,33,33,
67,1,1,1,1,0,0,0,0,0,0,0,0,0,0,0,0,0,0,0,0,0,0,0,0,0,0,0,0,0,0,0,0,0,0,0,0,0,0,0,72,76,77,77,77,77,77,77,77,77,77,77,77,77,77,77,77,77,77,77,77,69,70,70,70,70,70,70,70,71,0,0,0,0,0,0,0,0,0,0,0,0,0,0,0,0,0,0,0,0,0,0,0,0,0,0,0,76,77,77,77,77,77,77,77,77,77,77,77,77,77,77,77,77,77,77,77,78,33,33,
67,1,1,1,1,0,0,0,0,0,0,0,0,0,0,0,0,0,0,0,0,0,0,1063,0,1048,0,1049,0,0,0,0,0,0,0,0,0,0,0,0,72,76,77,77,77,77,77,77,77,77,77,77,77,77,77,77,77,77,77,77,77,101,102,102,102,102,102,102,102,103,14,0,0,0,0,0,0,0,0,0,0,0,0,0,0,0,0,0,0,0,1065,0,0,0,0,0,0,76,77,77,77,77,77,77,77,77,77,77,77,77,77,77,77,77,77,77,77,78,33,33,
67,1,1,1,1,0,0,0,0,0,0,0,0,0,0,0,0,0,0,0,37,38,38,38,38,38,38,38,38,39,0,0,1030,0,1031,0,0,0,0,0,72,76,77,77,77,77,77,77,77,77,77,77,77,77,77,77,77,77,77,77,77,77,77,77,77,77,77,77,77,78,14,0,0,0,0,0,0,0,0,0,0,0,0,0,0,0,37,38,38,38,38,39,0,0,0,0,0,76,77,77,77,77,77,77,77,77,77,77,77,77,77,77,77,77,77,77,77,78,33,33,
67,1,1,1,1,0,0,0,0,0,0,0,0,0,0,0,0,0,0,0,69,70,70,70,70,70,70,70,70,71,0,0,0,0,0,0,0,0,0,0,72,76,77,77,77,77,77,77,77,77,77,77,77,77,77,77,77,77,77,77,77,77,77,77,77,77,77,77,77,78,14,0,0,0,0,0,0,0,0,0,0,0,0,0,0,0,69,70,70,70,70,71,0,0,0,0,0,76,77,77,77,77,77,77,77,77,77,77,77,77,77,77,77,77,77,77,77,78,33,33,
67,1,1,1,1,0,0,0,0,0,0,0,0,0,0,0,0,0,0,0,69,70,70,70,70,70,70,70,70,71,0,0,1039,0,1040,0,0,0,0,0,72,76,77,77,77,77,77,77,77,77,77,77,77,77,77,77,77,77,77,77,77,77,77,77,77,77,77,77,77,78,14,0,0,0,0,0,0,0,0,0,0,0,0,0,0,0,101,102,102,102,102,103,0,0,0,0,0,76,77,77,77,77,77,77,77,77,77,77,77,77,77,77,77,77,77,77,77,78,33,33,
0,1,1,1,1,0,0,0,0,0,0,0,0,0,0,0,0,0,0,0,69,70,70,70,70,70,70,70,70,71,0,0,0,0,0,0,0,0,0,0,72,76,77,77,77,77,77,77,77,77,77,77,77,77,77,77,77,77,77,77,77,77,77,77,77,77,77,77,77,78,0,0,0,0,0,0,0,0,0,0,0,0,0,0,0,0,0,0,0,0,0,0,0,0,0,0,0,76,77,77,77,77,77,77,77,77,77,77,77,77,77,77,77,77,77,77,77,78,33,0,
0,1,1,1,1,0,0,0,0,0,0,0,0,0,0,0,0,0,0,0,69,70,70,70,70,70,70,70,70,71,0,1063,1048,0,1049,1065,0,0,0,0,72,76,77,77,77,77,77,77,77,77,77,77,77,77,77,77,77,77,77,77,77,77,77,77,77,77,77,77,77,78,0,0,0,0,0,0,0,0,0,0,0,0,0,0,0,0,0,0,0,0,0,0,0,0,0,0,0,108,77,77,77,77,77,77,77,77,77,77,77,77,77,77,77,77,77,77,77,78,33,0,
0,1,1,1,1,0,0,0,0,1033,0,1034,0,0,0,0,37,38,38,38,70,70,70,70,70,70,70,70,70,42,38,38,38,38,38,38,39,0,0,0,72,76,77,77,77,77,77,77,77,77,77,77,77,77,77,77,77,77,77,77,77,77,77,77,77,77,77,77,77,78,0,1033,0,1034,0,0,0,0,0,0,0,0,0,0,0,0,0,0,0,0,0,0,1030,0,1031,0,0,37,38,38,38,38,38,38,38,39,77,77,77,77,77,77,77,77,77,77,77,78,33,0,
0,0,1,1,1,0,0,0,0,0,0,0,0,0,0,0,69,70,70,70,70,70,70,70,70,70,70,70,70,70,70,70,70,70,70,70,42,39,0,0,72,76,77,77,77,77,77,77,77,77,77,77,77,77,77,77,77,77,77,77,77,77,77,77,77,77,77,77,77,78,0,0,0,0,0,0,0,0,0,0,0,0,0,0,0,0,0,0,0,0,0,0,0,0,0,0,0,69,70,70,70,70,70,70,70,71,77,77,77,77,77,77,77,77,77,77,77,78,33,0,
0,0,1,1,1,0,0,0,0,1042,0,1043,0,0,0,0,69,70,70,70,70,70,70,70,70,70,70,70,70,70,70,70,70,70,70,70,70,42,39,0,72,76,77,77,77,77,77,77,77,77,77,77,77,77,77,77,77,77,77,77,77,77,77,77,77,77,77,77,77,78,0,1042,0,1043,0,0,0,0,0,0,0,0,0,0,0,0,0,0,0,0,0,0,1039,0,1040,0,0,69,70,70,70,70,70,70,70,71,77,77,77,77,77,77,77,77,77,77,77,78,33,0,
0,0,1,1,1,0,0,0,0,0,0,0,0,0,0,0,69,70,70,70,70,70,70,70,70,70,70,70,70,70,70,70,70,70,70,70,70,70,42,39,51,76,77,77,77,77,77,77,77,77,77,77,77,77,77,77,77,77,77,77,77,77,77,77,77,77,77,77,77,78,0,0,0,0,0,0,0,0,0,0,0,0,0,0,0,0,0,0,0,0,0,0,0,0,0,0,0,69,70,70,70,70,70,70,70,71,77,77,77,77,77,77,77,77,77,77,77,78,33,0,
0,1065,0,1062,0,0,0,0,1063,1051,0,1052,0,0,1064,0,69,70,70,70,70,70,70,70,70,70,70,70,70,70,70,70,70,70,70,70,70,70,70,42,39,76,77,77,77,77,77,77,77,77,77,77,77,77,77,77,77,77,77,77,77,77,77,77,77,77,77,77,77,78,1065,1051,0,1052,0,0,0,0,0,0,0,0,0,0,1064,0,0,0,0,0,1062,0,1048,0,1049,0,0,69,70,70,70,70,70,70,70,71,77,77,77,77,77,77,77,77,77,77,77,78,1062,0,
38,38,38,38,38,38,38,38,38,38,38,38,38,38,38,38,70,70,70,70,70,70,70,70,70,70,70,70,70,70,70,70,70,70,70,70,70,70,70,70,42,38,38,38,38,38,38,38,38,38,38,38,38,38,38,38,38,38,38,38,38,38,38,38,38,38,38,38,38,38,38,38,38,38,38,38,38,38,38,38,38,38,38,38,38,38,38,38,38,38,38,38,38,38,38,38,38,41,70,70,70,42,70,70,70,42,38,38,38,38,38,38,38,38,38,38,38,38,38,38,
70,70,70,70,70,70,70,70,70,70,70,70,70,70,70,70,70,70,70,70,70,70,70,70,70,70,70,70,70,70,70,70,70,70,70,70,70,70,70,70,70,70,70,70,70,70,70,70,70,70,70,70,70,70,70,70,70,70,70,70,70,70,70,70,70,70,70,70,70,70,70,70,70,70,70,70,70,70,70,70,70,70,70,70,70,70,70,70,70,70,70,70,70,70,70,70,70,70,70,70,70,70,70,70,70,70,70,70,70,70,70,70,70,70,70,70,70,70,70,70,
70,70,70,70,70,70,70,70,70,70,70,70,70,70,70,70,70,70,70,70,70,70,70,70,70,70,70,70,70,70,70,70,70,70,70,70,70,70,70,70,70,70,70,70,70,70,70,70,70,70,70,70,70,70,70,70,70,70,70,70,70,70,70,70,70,70,70,70,70,70,70,70,70,70,70,70,70,70,70,70,70,70,70,70,70,70,70,70,70,70,70,70,70,70,70,70,70,70,70,70,70,70,70,70,70,70,70,70,70,70,70,70,70,70,70,70,70,70,70,70,
70,70,70,70,70,70,70,70,70,70,70,70,70,70,70,70,70,70,70,70,70,70,70,70,70,70,70,70,70,70,70,70,70,70,70,70,70,70,70,70,70,70,70,70,70,70,70,70,70,70,70,70,70,70,70,70,70,70,70,70,70,70,70,70,70,70,70,70,70,70,70,70,70,70,70,70,70,70,70,70,70,70,70,70,70,70,70,70,70,70,70,70,70,70,70,70,70,70,70,70,70,70,70,70,70,70,70,70,70,70,70,70,70,70,70,70,70,70,70,70,
70,70,70,70,70,70,70,70,70,70,70,70,70,70,70,70,70,70,70,70,70,70,70,70,70,70,70,70,70,70,70,70,70,70,70,70,70,70,70,70,70,70,70,70,70,70,70,70,70,70,70,70,70,70,70,70,70,70,70,70,70,70,70,70,70,70,70,70,70,70,70,70,70,70,70,70,70,70,70,70,70,70,70,70,70,70,70,70,70,70,70,70,70,70,70,70,70,70,70,70,70,70,70,70,70,70,70,70,70,70,70,70,70,70,70,70,70,70,70,70,
70,70,70,70,70,70,70,70,70,70,70,70,70,70,70,70,70,70,70,70,70,70,70,70,70,70,70,70,70,70,70,70,70,70,70,70,70,70,70,70,70,70,70,70,70,70,70,70,70,70,70,70,70,70,70,70,70,70,70,70,70,70,70,70,70,70,70,70,70,70,70,70,70,70,70,70,70,70,70,70,70,70,70,70,70,70,70,70,70,70,70,70,70,70,70,70,70,70,70,70,70,70,70,70,70,70,70,70,70,70,70,70,70,70,70,70,70,70,70,70,
70,70,70,70,70,70,70,70,70,70,70,70,70,70,70,70,70,70,70,70,70,70,70,70,70,70,70,70,70,70,70,70,70,70,70,70,70,70,70,70,70,70,70,70,70,70,70,70,70,70,70,70,70,70,70,70,70,70,70,70,70,70,70,70,70,70,70,70,70,70,70,70,70,70,70,70,70,70,70,70,70,70,70,70,70,70,70,70,70,70,70,70,70,70,70,70,70,70,70,70,70,70,70,70,70,70,70,70,70,70,70,70,70,70,70,70,70,70,70,70,
70,70,70,70,70,70,70,70,70,70,70,70,70,70,70,70,70,70,70,70,70,70,70,70,70,70,70,70,70,70,70,70,70,70,70,70,70,70,70,70,70,70,70,70,70,70,70,70,70,70,70,70,70,70,70,70,70,70,70,70,70,70,70,70,70,70,70,70,70,70,70,70,70,70,70,70,70,70,70,70,70,70,70,70,70,70,70,70,70,70,70,70,70,70,70,70,70,70,70,70,70,70,70,70,70,70,70,70,70,70,70,70,70,70,70,70,70,70,70,70
</data>
 </layer>
 <group id="27" name="Objects">
  <imagelayer id="28" name="Image Layer 6" offsetx="832" offsety="896">
   <image source="../graphics/objects/fenceFull.png" width="288" height="64"/>
  </imagelayer>
 </group>
 <objectgroup id="22" name="Spikes">
  <object id="103" name="Spike" gid="1025" x="1213.33" y="980.333" width="32" height="32"/>
  <object id="104" name="Spike" gid="1025" x="1243.67" y="979.333" width="32" height="32"/>
  <object id="105" name="Spike" gid="1025" x="1274" y="978.333" width="32" height="32"/>
  <object id="110" x="1214.73" y="940.909" width="93.4545" height="25.0909"/>
  <object id="127" name="Spike" gid="1025" x="1027.66" y="496.242" width="32" height="32"/>
  <object id="128" name="Spike" gid="1025" x="1058" y="496.152" width="32" height="32"/>
  <object id="129" name="Spike" gid="1025" x="1088.33" y="496.242" width="32" height="32"/>
  <object id="130" name="Spike" gid="1025" x="934.726" y="498.333" width="32" height="32"/>
  <object id="131" name="Spike" gid="1025" x="965.066" y="497.333" width="32" height="32"/>
  <object id="132" name="Spike" gid="1025" x="995.396" y="496.333" width="32" height="32"/>
  <object id="133" x="933.773" y="465.455" width="184.954" height="25.0909"/>
 </objectgroup>
 <objectgroup id="24" name="Entities">
  <object id="113" name="Player" x="87.5" y="916.917">
   <point/>
  </object>
  <object id="115" name="Alien2" type="Enemy" x="824" y="933.5">
   <properties>
    <property name="AttackCoolDown" type="float" value="4"/>
    <property name="DMG" type="float" value="1"/>
    <property name="Direction" type="float" value="-1"/>
    <property name="Health" type="float" value="1"/>
    <property name="MoveSpeed" type="float" value="0"/>
    <property name="Type" value="Alien"/>
   </properties>
   <point/>
  </object>
  <object id="116" name="Farmer1" type="Enemy" x="199.5" y="540">
   <properties>
    <property name="AttackCoolDown" type="float" value="4"/>
    <property name="DMG" type="float" value="1"/>
    <property name="Direction" type="float" value="-1"/>
    <property name="Health" type="float" value="1"/>
    <property name="MoveSpeed" type="float" value="0"/>
    <property name="Type" value="Farmer"/>
   </properties>
   <point/>
  </object>
  <object id="117" name="Alien1" type="Enemy" x="335" y="669.5">
   <properties>
    <property name="AttackCoolDown" type="float" value="4"/>
    <property name="DMG" type="float" value="1"/>
    <property name="Direction" type="float" value="-1"/>
    <property name="Health" type="float" value="1"/>
    <property name="MoveSpeed" type="float" value="0"/>
    <property name="Type" value="Alien"/>
   </properties>
   <point/>
  </object>
 </objectgroup>
</map>
